X: 37479
T: Slieve Snaght
R: reel
M: 4/4
K: Dmajor
efed cAAB|G2BG dGBG|efed cAAe|1 eaa^g a2=gf:|2 eaa^g a2ed||
cAeA fAeA|efgf eA (3AAA|BGGF GABd|dcde fedc|
cAeA fAeA|efgf eA (3AAA|BG~G2 BcdB|cABG A3 z||

